X:1
T:B. D. Ackley
T:E. E. Hewitt
T:There Cometh No Night
%%score { ( 1 2 ) | ( 3 4 ) }
L:1/8
M:6/4
K:Bb
V:1 treble 
V:2 treble 
V:3 bass 
V:4 bass 
V:1
{/x} F2 | F2 =E2 F2 B2 A2 B2 | c2 B2 G2 F4 F2 | F2 =E2 F2 G2 F2 D2 | C6- C4 C2 | %5
w: We|watch for the morn\- ing, the|beau\- ti\- ful day That|shines in the Land of De\-|light; * The|
w: The|ros\- es bloom on in that|won\- der\- ful land, Un\-|touched by the fin\- gers of|blight; * And|
 C2 D2 =E2 F2 G2 A2 | B2 G2 c2 A4 A2 | B2 D2 F2 =E2 D2 E2 | F6- F4"^Chorus" F2 | F2 =E2 F2 F6- | %10
w: shad\- ows will flee from its|ra\- diance a\- way; O|lis\- ten! there com\- eth no|night. * There|com\- eth no night,|
w: earth's drear\- y sor\- rows we'll|there un\- der\- stand, Re\-|joic\- ing\- there com\- eth no|night. * *||
 F4 F2 G2 G2 G2 | G2[Q:1/4=48]"^Largo" !fermata!c2 !fermata!e2[Q:1/4=120]"^Allegretto" d2 F4- | %12
w: * Where Je\- sus is|dwell\- ing There com\- eth|
w: ||
 F4[Q:1/4=48]"^Lento" !fermata!c2 !fermata!B4 |] %13
w: * no night.|
w: |
V:2
 D2 | D2 ^C2 D2 D2 D2 D2 | E2 E2 E2 D4 D2 | D2 ^C2 D2 _E2 D2 B,2 | A,6 A,4 A,2 | %5
w: |||||
w: |||||
w: The|King in His beau\- ty we|there shall be\- hold; The|Lamb is its glo\- ry and|light; * We'll|
 B,2 B,2 C2 C2 C2 C2 | =E2 E2 E2 F4 C2 | D2 B,2 B,2 B,2 B,2 B,2 | A,2 A,2 B,2 A,4 A,2 | %9
w: ||||
w: ||||
w: join the grand chor\- us of|rap\- ture un\- told, For\-|ev\- er\- there com\- eth no|night. * * * *|
 B,2 B,2 B,2 B,4 _E2 | D4 D2 E2 E2 F2 | E2 E2 [FG]2 F2 D2 E2 | D4 E2 D4 |] %13
w: * * * * no|night * * * *|* * * * * no|night, * *|
w: ||||
w: ||||
V:3
 B,2 | B,2 B,2 B,2 F,2 F,2 B,2 | G,2 G,2 B,2 B,4 B,2 | B,2 B,2 B,2 B,2 B,2 F,2 | F,6- F,4 F,2 | %5
w: |||||
 =E,2 F,2 G,2 F,2 E,2 F,2 | G,2 C2 C2 C4 F,2 | F,2 G,2 G,2 G,2 F,2 G,2 | F,2 C,2 D,2 F,4 E,2 | %9
w: ||* * * * * There|com- eth no night *|
 D,2 ^C,2 E,2 D,4 G,2 | F,4 B,2 B,2 B,2 =B,2 | C2 !fermata!G,2 !fermata!A,2 B,2 B,2 C2 | %12
w: |||
 B,4 !fermata!A,2 !fermata!B,4 |] %13
w: * no night|
V:4
 B,,2 | B,,2 B,,2 B,,2 B,,2 B,,2 B,,2 | E,2 E,2 E,2 B,,4 B,,2 | B,,2 B,,2 B,,2 B,,2 B,,2 B,,2 | %4
 F,,6- F,,4 F,,2 | C,2 C,2 B,,2 A,,2 C,2 F,2 | C,2 C,2 C,2 F,4 F,2 | B,,2 B,,2 G,,2 C,2 C,2 C,2 | %8
 F,,6 F,,4 F,,2 | B,,2 B,,2 B,,2 B,,4 B,,2 | B,,4 B,,2 E,2 E,2 D,2 | C,2 E,2 F,2 F,2 F,2 F,2 | %12
 F,4 F,2 B,,4 |] %13

